!! 00000] TT[WS
!!!OTL: Xiangqinqin xiangde mile qiao
!!!ARE: Asia, China, Shanxi Hequ
!! Ethnic Group: Han
!! WII, 33
!!!SCT: J0444
!!!YEM: Copyright 1995, estate of Helmut Schaffrath.
**kern
*ICvox
*Ivox
*M2/4
*k[f#]
*G:
{8.b
16a
4a
=1
8b
4a
8a
=2
8g
8g
8e
[8d
=3
8d]
8g
8e
8d
=4
2dd}
=5
{8a
8a
8gg
8ee
=6
8gg
4ee
8dd
=7
4dd
8f#
8g
=8
4a
8a
8f#
=9
4dd
4r}
==
!!!AGN: Shange, Shanqu. Qingge
!!!ONB: ESAC (Essen Associative Code) Database: CHINA
!!!AMT: simple duple
!!!AIN: vox
!!!EED: Helmut Schaffrath
!!!EEV: 1.0
*-
!!!ONB: Tied note syntax fixed by Craig Sapp, 2004/05/03/
